X: 38945
T: Sussex Waltz, The
R: waltz
M: 3/4
K: Gmajor
B2c2|:d2 d2 cA|B2 BA G2|FG A2 F2|G2 B2 c2|
d2 d2 cA|B2 BA G2|FG A2 F2|1 G2 B2 c2:|2 G2 B2 G2||
|:FG A2 F2|GA B2 G2|AB c2 e2|d2 Bd cA|
B2 Bd cA|B2 BA G2|FG A2 F2|1 G2 B2 G2:|2 G2||

